!!!COM: Palestrina, Giovanni Perluigi da
!!!OPR: Missa Qual e il piu grande'amore
!!!OMD: Benedictus
!!!OTL: Hosanna
**kern	**kern	**kern	**kern	**kern
*Ibass	*Itenor	*Icalto	*Icant	*Icant
!Bassus	!Tenor	!Altus	!Cantus 2	!Cantus 1
*clefF4	*clefGv2	*clefG2	*clefG2	*clefG2
*k[b-]	*k[b-]	*k[b-]	*k[b-]	*k[b-]
*F:ion	*F:ion	*F:ion	*F:ion	*F:ion
*M4/2	*M4/2	*M4/2	*M4/2	*M4/2
=40	=40	=40	=40	=40
0r	1F	1f	0r	1a
.	2c	2.e	.	2.g
.	2c	.	.	.
.	.	4c	.	4e
=41	=41	=41	=41	=41
0r	2B-	2d	1r	2f
.	2G	2e	.	2g
.	1F	1f	1cc	1a
=42	=42	=42	=42	=42
0r	1G	2d	2.b-	2g
.	.	2.g	.	2b-
.	.	.	4g	.
.	2d	.	2a	2a
.	.	4f	.	.
.	2d	[2f	2b-	4g
.	.	.	.	4f
=43	=43	=43	=43	=43
1r	0c	2f]	1cc	1g
.	.	2e	.	.
1F	.	2f	2a	1cc
.	.	2F	2a	.
=44	=44	=44	=44	=44
2.E	1C	2r	2.g	1cc
.	.	2c	.	.
4C	.	.	4e	.
2D	1r	2.B-	2f	2r
2E	.	.	2g	2g
.	.	4G	.	.
=45	=45	=45	=45	=45
2F	0r	2A	2c	2.f
2D	.	2B-	2d	.
.	.	.	.	4d
2C	.	2c	2g	2e
[2c	.	2A	2c	2f
=46	=46	=46	=46	=46
2c]	1r	2G	1d	1g
2B	.	1g	.	.
1c	2r	.	1c	2e
.	2c	2e	.	4g
.	.	.	.	4a
=47	=47	=47	=47	=47
1G	2.B-	1d	2r	4b-
.	.	.	.	4cc
.	.	.	2g	4dd
.	4G	.	.	4b-
1r	2A	1r	2.f	2cc
.	2B-	.	.	4b-
.	.	.	4d	4a
=48	=48	=48	=48	=48
0r	0c	0r	2e	2g
.	.	.	1f	2a
.	.	.	.	1g
.	.	.	2e	.
=49	=49	=49	=49	=49
1D	2A	2r	4f	1f
.	.	.	4g	.
.	2F	2f	4a	.
.	.	.	4b-	.
2.C	2G	2.e	1cc	1r
.	2A	.	.	.
4AA	.	4c	.	.
=50	=50	=50	=50	=50
2BB-	1G	2d	1r	2r
2C	.	2e	.	2cc
1D	1F	2f	2r	2.a
.	.	2F	2f	.
.	.	.	.	4f
=51	=51	=51	=51	=51
1C	2r	1c	2.e	2g
.	2c	.	.	2a
.	.	.	4c	.
1G	2.B-	1r	2d	1b-
.	.	.	2e	.
.	4G	.	.	.
=52	=52	=52	=52	=52
2F	2A	2r	1f	2.a
2D	2A	2d	.	.
.	.	.	.	4b-
2E	2G	2c	2g	2cc
2F	2D	2A	2a	[2dd
=53	=53	=53	=53	=53
0G	2d	2B	[0g	2dd]
.	2e	2c	.	1cc
.	1d	2d	.	.
.	.	[2G	.	2b
=54	=54	=54	=54	=54
1C	2c	2G]	1g]	1cc
.	2e	2g	.	.
1r	2.d	2.f	2r	2r
.	.	.	2b-	2b-
.	4B-	4d	.	.
=55	=55	=55	=55	=55
0r	2c	2e	2.a	2cc
.	2d	2f	.	2a
.	.	.	4f	.
.	1c	2e	2g	2cc
.	.	[2f	2a	2cc
=56	=56	=56	=56	=56
1r	1c	2f]	1g	1cc
.	.	2e	.	.
1D	2r	2f	1f	2a
.	2A	2d	.	2f
=57	=57	=57	=57	=57
2.C	1c	2g	2r	2.e
.	.	2e	2cc	.
4AA	.	.	.	4c
2BB-	2F	2d	2b-	2d
2C	2E	[2c	2g	2e
=58	=58	=58	=58	=58
1D	1F	2c]	2f	4d
.	.	.	.	4e
.	.	2B	2f	1f
1C	1G	1c	1cc	.
.	.	.	.	2e
=59	=59	=59	=59	=59
0F	0F	0c	0a	0f
==	==	==	==	==
*-	*-	*-	*-	*-
!!!CDT: 1525/^1526/-1594/2/2
!!!OCY: Italia
!!!AGN: Mass (Parody)
!!!AST: renaissance, vocal
!!!ASW: Madrigal 1550 (Rore)
!!!PWK: Masses, Book 12
!!!RNB: Cadence finals: C
!!!YOR: Le Opere Complete, v. 29, p. 88
!!!YOO: Rome, Italy: Fratelli Scalera
!!!END: 1992//
!!!EED: John Miller
!!!YEC: Copyright 2000, John Miller
!!!YEN: United States of America
!!!YEM: Rights to all derivative electronic formats reserved.
!!!YEM: Refer to licensing agreement for further details.
!!!YEM: This file must be accompanied by the licensing agreement.
!!!YEM: A copy of the licensing agreement may be found at http://www.music-cog.ohio-state.edu/HumdrumDatabases/Palestrina/license.txt
!!!EMD: converted to Humdrum by Bret Aarden
